X: 41180
T: Tripping Up The Stairs
R: jig
M: 6/8
K: Dmajor
A|:FAA GBB|FAd fed|cBc ABc|dfe dAG|
FAA GBB|FAd fed|cBc ABc|1 dfe d2A:|2 dfe d2c||
|:dBB fBB|fgf fed|cAA eAA|efe edc|
dBB fBB|fgf fed|cBc ABc|1 dfe d2c:|2 dfe d2A||

